X:1
T:New Union, 88.88.7
T:New Union, 88.88.7
T:Oliver Holden, 1803
T:Public Domain Courtesy of the Cyber Hymnal™
C:Oliver Holden, 1803
Z:Public Domain
Z:Courtesy of the Cyber Hymnal™
%%score 1 2 3 4
L:1/8
Q:1/4=108
M:4/4
K:F
V:1 treble 
V:2 treble 
V:3 treble-8 
V:4 bass 
V:1
 A4 | A2 (FG) A3 A | A2 A2 A3 A | A2 d2 c2 c2 | c3 c c2 d2 | d2 A2 A2 A2 | d2 d2 c2 c2 | %7
 G2 G2 A2 d2 | f2 (fe) d3 ^c | d3 d d2 ^c2 | d4 d4 |] %11
V:2
 D4 | F2 F2 F3 D | ^C2 C2 D3 C | D2 D2 E2 F2 | E3 E E2 F2 | F2 F2 F2 F2 | D2 F2 E2 F2 | %7
 E2 E2 F2 F2 | D2 F2 F3 E | D3 D F2 E2 | D4 D4 |] %11
V:3
 d4 | d2 (AG) F3 F | E2 E2 D3 E | F2 A2 c2 A2 | G3 A G2 (FG) | A2 d2 d2 D2 | B2 A2 G2 F2 | %7
 c2 (cB) A2 A2 | d2 (d^c) d3 e | f3 d (AG) (A^c) | d4 d4 |] %11
V:4
 D,4 | D,2 (F,E,) D,3 D, | A,,2 A,,2 D,3 ^C, | D,2 F,2 C,2 C,2 | C,3 C, C,2 (F,E,) | %5
 D,2 D,2 D,2 F,2 | G,2 F,2 C,2 A,,2 | C,2 C,2 F,2 (F,G,) | A,2 A,,2 D,3 A, | F,3 G, A,2 A,,2 | %10
 D,4 D,4 |] %11

